X:1
T:Calledonans [sic] Rant, The
M:C|
L:1/8
R:Reel
S:William Vickers' music manuscript collection (Northumberland, 1770)
K:F
F|c2 de/f/ {f}e2 ed|cAGF GCCG|c2 de/f/ {f}e2 ed|cbag f3 F:||
|:AcBc AcGc|AcBc A2 {G}F2|AcBc AcGc|Acfe f2F2|
affc affc|dffc A2 GF|affc d/e/f f2|cfcA F2F:|

